app/assets/images/icons/active/pets.svg

<?xml version="1.0" encoding="UTF-8" standalone="no"?>
<svg width="32px" height="232px" viewBox="0 0 32 232" version="1.1" xmlns="http://www.w3.org/2000/svg" xmlns:xlink="http://www.w3.org/1999/xlink" xmlns:sketch="http://www.bohemiancoding.com/sketch/ns">
    <title>pets</title>
    <description>Created with Sketch (http://www.bohemiancoding.com/sketch)</description>
    <defs></defs>
    <g id="Hotel-facilities" stroke="none" stroke-width="1" fill="none" fill-rule="evenodd" sketch:type="MSPage">
        <path d="M21.0647678,138.196 C20.6593098,135.155 16.5652969,134.803 16.013227,134.77 C15.4601459,134.803 11.3681552,135.155 10.9626973,138.196 C10.9626973,142.57 7.66746679,140.167 7.40659859,144.201 C7.40659859,146.832 11.2518768,148.967 16.013227,149 C20.7745772,148.967 24.6188442,146.832 24.6188442,144.201 C24.3599983,140.167 21.0647678,142.57 21.0647678,138.196 M27.4469387,132.299 C26.2346093,131.407 24.4651545,131.736 23.4975154,133.03 C22.5278542,134.323 22.457076,136.567 23.675472,137.453 C24.8857791,138.345 26.91408,137.541 27.8837412,136.248 C28.8534025,134.953 28.6572458,133.185 27.4469387,132.299 M8.56736097,133.248 C7.66140008,131.91 5.90913423,131.497 4.65939354,132.33 C3.40560839,133.159 3.12451785,134.917 4.03351209,136.255 C4.93745073,137.592 7.05270762,138.404 8.30548165,137.572 C9.55522233,136.744 9.4763552,134.584 8.56736097,133.248 M18.2053288,132.978 C19.7725602,133.776 21.956573,132.477 22.8301782,130.805 C23.70075,129.131 23.13958,127.127 21.5743708,126.328 C20.004106,125.531 18.0273722,126.237 17.1557892,127.907 C16.2872397,129.58 16.6391084,132.18 18.2053288,132.978 M12.8534862,133.361 C14.5804741,133.021 15.4682349,130.651 15.0941216,128.804 C14.7189971,126.963 13.0132427,125.745 11.2852436,126.09 C9.55522233,126.434 8.46119368,128.205 8.8363181,130.051 C9.2094203,131.897 11.1234649,133.707 12.8534862,133.361" id="pets--white" fill="#206FAC" sketch:type="MSShapeGroup"></path>
        <path d="M21.0647678,98.196 C20.6593098,95.155 16.5652969,94.803 16.013227,94.77 C15.4601459,94.803 11.3681552,95.155 10.9626973,98.196 C10.9626973,102.57 7.66746679,100.167 7.40659859,104.201 C7.40659859,106.832 11.2518768,108.967 16.013227,109 C20.7745772,108.967 24.6188442,106.832 24.6188442,104.201 C24.3599983,100.167 21.0647678,102.57 21.0647678,98.196 M27.4469387,92.299 C26.2346093,91.407 24.4651545,91.736 23.4975154,93.03 C22.5278542,94.323 22.457076,96.567 23.675472,97.453 C24.8857791,98.345 26.91408,97.541 27.8837412,96.248 C28.8534025,94.953 28.6572458,93.185 27.4469387,92.299 M8.56736097,93.248 C7.66140008,91.91 5.90913423,91.497 4.65939354,92.33 C3.40560839,93.159 3.12451785,94.917 4.03351209,96.255 C4.93745073,97.592 7.05270762,98.404 8.30548165,97.572 C9.55522233,96.744 9.4763552,94.584 8.56736097,93.248 M18.2053288,92.978 C19.7725602,93.776 21.956573,92.477 22.8301782,90.805 C23.70075,89.131 23.13958,87.127 21.5743708,86.328 C20.004106,85.531 18.0273722,86.237 17.1557892,87.907 C16.2872397,89.58 16.6391084,92.18 18.2053288,92.978 M12.8534862,93.361 C14.5804741,93.021 15.4682349,90.651 15.0941216,88.804 C14.7189971,86.963 13.0132427,85.745 11.2852436,86.09 C9.55522233,86.434 8.46119368,88.205 8.8363181,90.051 C9.2094203,91.897 11.1234649,93.707 12.8534862,93.361" id="pets--white" fill="#FFFFFF" sketch:type="MSShapeGroup"></path>
        <path d="M21.0647678,58.196 C20.6593098,55.155 16.5652969,54.803 16.013227,54.77 C15.4601459,54.803 11.3681552,55.155 10.9626973,58.196 C10.9626973,62.57 7.66746679,60.167 7.40659859,64.201 C7.40659859,66.832 11.2518768,68.967 16.013227,69 C20.7745772,68.967 24.6188442,66.832 24.6188442,64.201 C24.3599983,60.167 21.0647678,62.57 21.0647678,58.196 M27.4469387,52.299 C26.2346093,51.407 24.4651545,51.736 23.4975154,53.03 C22.5278542,54.323 22.457076,56.567 23.675472,57.453 C24.8857791,58.345 26.91408,57.541 27.8837412,56.248 C28.8534025,54.953 28.6572458,53.185 27.4469387,52.299 M8.56736097,53.248 C7.66140008,51.91 5.90913423,51.497 4.65939354,52.33 C3.40560839,53.159 3.12451785,54.917 4.03351209,56.255 C4.93745073,57.592 7.05270762,58.404 8.30548165,57.572 C9.55522233,56.744 9.4763552,54.584 8.56736097,53.248 M18.2053288,52.978 C19.7725602,53.776 21.956573,52.477 22.8301782,50.805 C23.70075,49.131 23.13958,47.127 21.5743708,46.328 C20.004106,45.531 18.0273722,46.237 17.1557892,47.907 C16.2872397,49.58 16.6391084,52.18 18.2053288,52.978 M12.8534862,53.361 C14.5804741,53.021 15.4682349,50.651 15.0941216,48.804 C14.7189971,46.963 13.0132427,45.745 11.2852436,46.09 C9.55522233,46.434 8.46119368,48.205 8.8363181,50.051 C9.2094203,51.897 11.1234649,53.707 12.8534862,53.361" id="pets--light-grey" fill="#67737B" sketch:type="MSShapeGroup"></path>
        <path d="M21.0647678,18.196 C20.6593098,15.155 16.5652969,14.803 16.013227,14.77 C15.4601459,14.803 11.3681552,15.155 10.9626973,18.196 C10.9626973,22.57 7.66746679,20.167 7.40659859,24.201 C7.40659859,26.832 11.2518768,28.967 16.013227,29 C20.7745772,28.967 24.6188442,26.832 24.6188442,24.201 C24.3599983,20.167 21.0647678,22.57 21.0647678,18.196 M27.4469387,12.299 C26.2346093,11.407 24.4651545,11.736 23.4975154,13.03 C22.5278542,14.323 22.457076,16.567 23.675472,17.453 C24.8857791,18.345 26.91408,17.541 27.8837412,16.248 C28.8534025,14.953 28.6572458,13.185 27.4469387,12.299 M8.56736097,13.248 C7.66140008,11.91 5.90913423,11.497 4.65939354,12.33 C3.40560839,13.159 3.12451785,14.917 4.03351209,16.255 C4.93745073,17.592 7.05270762,18.404 8.30548165,17.572 C9.55522233,16.744 9.4763552,14.584 8.56736097,13.248 M18.2053288,12.978 C19.7725602,13.776 21.956573,12.477 22.8301782,10.805 C23.70075,9.131 23.13958,7.127 21.5743708,6.328 C20.004106,5.531 18.0273722,6.237 17.1557892,7.907 C16.2872397,9.58 16.6391084,12.18 18.2053288,12.978 M12.8534862,13.361 C14.5804741,13.021 15.4682349,10.651 15.0941216,8.804 C14.7189971,6.963 13.0132427,5.745 11.2852436,6.09 C9.55522233,6.434 8.46119368,8.205 8.8363181,10.051 C9.2094203,11.897 11.1234649,13.707 12.8534862,13.361" id="pets--dark-grey" fill="#3A434E" sketch:type="MSShapeGroup"></path>
    </g>
</svg>

<svg width="32" height="232" viewBox="0 0 32 232" xmlns="http://www.w3.org/2000/svg" xmlns:sketch="http://www.bohemiancoding.com/sketch/ns"><title>pets</title><g sketch:type="MSPage" fill="none"><path d="M21.065 138.196c-.405-3.041-4.499-3.393-5.052-3.426-.553.033-4.645.385-5.051 3.426 0 4.374-3.295 1.971-3.556 6.005 0 2.631 3.845 4.766 8.607 4.799 4.761-.033 8.606-2.168 8.606-4.799-.259-4.034-3.554-1.631-3.554-6.005m6.382-5.897c-1.212-.892-2.982-.563-3.949.731-.97 1.293-1.04 3.537.178 4.423 1.21.892 3.239.088 4.208-1.205.97-1.295.774-3.063-.437-3.949m-18.88.949c-.906-1.338-2.658-1.751-3.908-.918-1.254.829-1.535 2.587-.626 3.925.904 1.337 3.019 2.149 4.272 1.317 1.25-.828 1.171-2.988.262-4.324m9.638-.27c1.567.798 3.751-.501 4.625-2.173.871-1.674.309-3.678-1.256-4.477-1.57-.797-3.547-.091-4.419 1.579-.869 1.673-.517 4.273 1.05 5.071m-5.352.383c1.727-.34 2.615-2.71 2.241-4.557-.375-1.841-2.081-3.059-3.809-2.714-1.73.344-2.824 2.115-2.449 3.961.373 1.846 2.287 3.656 4.017 3.31" id="pets--white" fill="#206FAC" sketch:type="MSShapeGroup"/><path d="M21.065 98.196c-.405-3.041-4.499-3.393-5.052-3.426-.553.033-4.645.385-5.051 3.426 0 4.374-3.295 1.971-3.556 6.005 0 2.631 3.845 4.766 8.607 4.799 4.761-.033 8.606-2.168 8.606-4.799-.259-4.034-3.554-1.631-3.554-6.005m6.382-5.897c-1.212-.892-2.982-.563-3.949.731-.97 1.293-1.04 3.537.178 4.423 1.21.892 3.239.088 4.208-1.205.97-1.295.774-3.063-.437-3.949m-18.88.949c-.906-1.338-2.658-1.751-3.908-.918-1.254.829-1.535 2.587-.626 3.925.904 1.337 3.019 2.149 4.272 1.317 1.25-.828 1.171-2.988.262-4.324m9.638-.27c1.567.798 3.751-.501 4.625-2.173.871-1.674.309-3.678-1.256-4.477-1.57-.797-3.547-.091-4.419 1.579-.869 1.673-.517 4.273 1.05 5.071m-5.352.383c1.727-.34 2.615-2.71 2.241-4.557-.375-1.841-2.081-3.059-3.809-2.714-1.73.344-2.824 2.115-2.449 3.961.373 1.846 2.287 3.656 4.017 3.31" fill="#fff" sketch:type="MSShapeGroup"/><path d="M21.065 58.196c-.405-3.041-4.499-3.393-5.052-3.426-.553.033-4.645.385-5.051 3.426 0 4.374-3.295 1.971-3.556 6.005 0 2.631 3.845 4.766 8.607 4.799 4.761-.033 8.606-2.168 8.606-4.799-.259-4.034-3.554-1.631-3.554-6.005m6.382-5.897c-1.212-.892-2.982-.563-3.949.731-.97 1.293-1.04 3.537.178 4.423 1.21.892 3.239.088 4.208-1.205.97-1.295.774-3.063-.437-3.949m-18.88.949c-.906-1.338-2.658-1.751-3.908-.918-1.254.829-1.535 2.587-.626 3.925.904 1.337 3.019 2.149 4.272 1.317 1.25-.828 1.171-2.988.262-4.324m9.638-.27c1.567.798 3.751-.501 4.625-2.173.871-1.674.309-3.678-1.256-4.477-1.57-.797-3.547-.091-4.419 1.579-.869 1.673-.517 4.273 1.05 5.071m-5.352.383c1.727-.34 2.615-2.71 2.241-4.557-.375-1.841-2.081-3.059-3.809-2.714-1.73.344-2.824 2.115-2.449 3.961.373 1.846 2.287 3.656 4.017 3.31" fill="#67737B" sketch:type="MSShapeGroup"/><path d="M21.065 18.196c-.405-3.041-4.499-3.393-5.052-3.426-.553.033-4.645.385-5.051 3.426 0 4.374-3.295 1.971-3.556 6.005 0 2.631 3.845 4.766 8.607 4.799 4.761-.033 8.606-2.168 8.606-4.799-.259-4.034-3.554-1.631-3.554-6.005m6.382-5.897c-1.212-.892-2.982-.563-3.949.731-.97 1.293-1.04 3.537.178 4.423 1.21.892 3.239.088 4.208-1.205.97-1.295.774-3.063-.437-3.949m-18.88.949c-.906-1.338-2.658-1.751-3.908-.918-1.254.829-1.535 2.587-.626 3.925.904 1.337 3.019 2.149 4.272 1.317 1.25-.828 1.171-2.988.262-4.324m9.638-.27c1.567.798 3.751-.501 4.625-2.173.871-1.674.309-3.678-1.256-4.477-1.57-.797-3.547-.091-4.419 1.579-.869 1.673-.517 4.273 1.05 5.071m-5.352.383c1.727-.34 2.615-2.71 2.241-4.557-.375-1.841-2.081-3.059-3.809-2.714-1.73.344-2.824 2.115-2.449 3.961.373 1.846 2.287 3.656 4.017 3.31" fill="#3A434E" sketch:type="MSShapeGroup"/></g></svg>
